X: 25782
T: Mash-Tub March, The
R: waltz
M: 3/4
K: Dmajor
|:FG A2 AG|F>G AF D2|(3EFG A^G AF|Ad c2 E2|
Bc d3 f|(3fed c>B A2|1 B>c d3 f|e<c d2 D2:|2 Bc df ec|d2 D4||
|:f3 g (3agf|(3efe (3dcB A2|B3 c d>B|A>G FE D2|
[1 fd (3efg a2|e>d c<B A2|Bc d2 (3edc|d2 D4:|
[2 fd Ad fd|ec Ac ec|B>c d3 f|e<c d2 D2||

